{
 "type": "map",
 "version": "1.10",
 "tiledversion": "1.11.0",
 "orientation": "orthogonal",
 "renderorder": "right-down",
 "infinite": false,
 "width": 992,
 "height": 135,
 "tilewidth": 8,
 "tileheight": 8,
 "nextlayerid": 9,
 "nextobjectid": 108,
 "backgroundcolor": "#87ceeb",
 "layers": [
  {
   "id": 1,
   "name": "platforms",
   "type": "objectgroup",
   "draworder": "topdown",
   "opacity": 1,
   "visible": true,
   "x": 0,
   "y": 0,
   "objects": [
    {
     "id": 1,
     "name": "",
     "type": "ground",
     "width": 7936,
     "height": 64,
     "rotation": 0,
     "visible": true,
     "x": 0,
     "y": 1016
    },
    {
     "id": 2,
     "name": "",
     "type": "ground",
     "width": 64,
     "height": 64,
     "rotation": 0,
     "visible": true,
     "x": 260,
     "y": 952
    },
    {
     "id": 3,
     "name": "",
     "type": "platform",
     "width": 160,
     "height": 24,
     "rotation": 0,
     "visible": true,
     "x": 440,
     "y": 920
    },
    {
     "id": 4,
     "name": "",
     "type": "platform",
     "width": 160,
     "height": 24,
     "rotation": 0,
     "visible": true,
     "x": 680,
     "y": 830
    },
    {
     "id": 5,
     "name": "",
     "type": "platform",
     "width": 192,
     "height": 24,
     "rotation": 0,
     "visible": true,
     "x": 920,
     "y": 740
    },
    {
     "id": 6,
     "name": "",
     "type": "platform",
     "width": 128,
     "height": 24,
     "rotation": 0,
     "visible": true,
     "x": 1190,
     "y": 650
    },
    {
     "id": 7,
     "name": "",
     "type": "platform",
     "width": 160,
     "height": 24,
     "rotation": 0,
     "visible": true,
     "x": 1420,
     "y": 560
    },
    {
     "id": 8,
     "name": "",
     "type": "platform",
     "width": 128,
     "height": 24,
     "rotation": 0,
     "visible": true,
     "x": 1660,
     "y": 470
    },
    {
     "id": 9,
     "name": "",
     "type": "platform",
     "width": 256,
     "height": 24,
     "rotation": 0,
     "visible": true,
     "x": 1880,
     "y": 380
    },
    {
     "id": 10,
     "name": "",
     "type": "platform",
     "width": 128,
     "height": 24,
     "rotation": 0,
     "visible": true,
     "x": 700,
     "y": 740,
     "properties": [
      {
       "name": "oneWay",
       "type": "bool",
       "value": true
      }
     ]
    },
    {
     "id": 11,
     "name": "",
     "type": "platform",
     "width": 128,
     "height": 24,
     "rotation": 0,
     "visible": true,
     "x": 540,
     "y": 650,
     "properties": [
      {
       "name": "oneWay",
       "type": "bool",
       "value": true
      }
     ]
    },
    {
     "id": 12,
     "name": "",
     "type": "platform",
     "width": 128,
     "height": 24,
     "rotation": 0,
     "visible": true,
     "x": 700,
     "y": 560,
     "properties": [
      {
       "name": "oneWay",
       "type": "bool",
       "value": true
      }
     ]
    },
    {
     "id": 13,
     "name": "",
     "type": "platform",
     "width": 128,
     "height": 24,
     "rotation": 0,
     "visible": true,
     "x": 540,
     "y": 470,
     "properties": [
      {
       "name": "oneWay",
       "type": "bool",
       "value": true
      }
     ]
    },
    {
     "id": 14,
     "name": "",
     "type": "platform",
     "width": 128,
     "height": 24,
     "rotation": 0,
     "visible": true,
     "x": 700,
     "y": 380,
     "properties": [
      {
       "name": "oneWay",
       "type": "bool",
       "value": true
      }
     ]
    },
    {
     "id": 15,
     "name": "",
     "type": "platform",
     "width": 128,
     "height": 24,
     "rotation": 0,
     "visible": true,
     "x": 2448,
     "y": 300
    },
    {
     "id": 16,
     "name": "",
     "type": "platform",
     "width": 320,
     "height": 24,
     "rotation": 0,
     "visible": true,
     "x": 2220,
     "y": 470,
     "properties": [
      {
       "name": "oneWay",
       "type": "bool",
       "value": true
      }
     ]
    },
    {
     "id": 17,
     "name": "",
     "type": "platform",
     "width": 160,
     "height": 24,
     "rotation": 0,
     "visible": true,
     "x": 2620,
     "y": 580
    },
    {
     "id": 18,
     "name": "",
     "type": "platform",
     "width": 128,
     "height": 24,
     "rotation": 0,
     "visible": true,
     "x": 2860,
     "y": 690
    },
    {
     "id": 19,
     "name": "",
     "type": "platform",
     "width": 160,
     "height": 24,
     "rotation": 0,
     "visible": true,
     "x": 3060,
     "y": 800
    },
    {
     "id": 20,
     "name": "",
     "type": "platform",
     "width": 192,
     "height": 24,
     "rotation": 0,
     "visible": true,
     "x": 2300,
     "y": 910
    },
    {
     "id": 21,
     "name": "",
     "type": "ground",
     "width": 96,
     "height": 64,
     "rotation": 0,
     "visible": true,
     "x": 3380,
     "y": 952
    },
    {
     "id": 22,
     "name": "",
     "type": "ground",
     "width": 96,
     "height": 128,
     "rotation": 0,
     "visible": true,
     "x": 3476,
     "y": 888
    },
    {
     "id": 23,
     "name": "",
     "type": "ground",
     "width": 96,
     "height": 192,
     "rotation": 0,
     "visible": true,
     "x": 3572,
     "y": 824
    },
    {
     "id": 24,
     "name": "",
     "type": "ground",
     "width": 172,
     "height": 256,
     "rotation": 0,
     "visible": true,
     "x": 3668,
     "y": 760
    },
    {
     "id": 25,
     "name": "",
     "type": "platform",
     "width": 110,
     "height": 24,
     "rotation": 0,
     "visible": true,
     "x": 1760,
     "y": 910
    },
    {
     "id": 26,
     "name": "",
     "type": "platform",
     "width": 120,
     "height": 24,
     "rotation": 0,
     "visible": true,
     "x": 1960,
     "y": 820
    },
    {
     "id": 27,
     "name": "",
     "type": "platform",
     "width": 100,
     "height": 24,
     "rotation": 0,
     "visible": true,
     "x": 3870,
     "y": 900
    },
    {
     "id": 28,
     "name": "",
     "type": "ground",
     "width": 340,
     "height": 220,
     "rotation": 0,
     "visible": true,
     "x": 4520,
     "y": 796
    },
    {
     "id": 29,
     "name": "",
     "type": "platform",
     "width": 100,
     "height": 24,
     "rotation": 0,
     "visible": true,
     "x": 4880,
     "y": 906
    },
    {
     "id": 30,
     "name": "",
     "type": "ground",
     "width": 420,
     "height": 176,
     "rotation": 0,
     "visible": true,
     "x": 5000,
     "y": 640
    },
    {
     "id": 31,
     "name": "",
     "type": "platform",
     "width": 80,
     "height": 24,
     "rotation": 0,
     "visible": true,
     "x": 3280,
     "y": 830
    },
    {
     "id": 87,
     "name": "",
     "type": "ground",
     "width": 200,
     "height": 190,
     "rotation": 0,
     "visible": true,
     "x": 6350,
     "y": 826
    }
   ],
   "color": "#7a4e2d"
  },
  {
   "id": 2,
   "name": "obstacles",
   "type": "objectgroup",
   "draworder": "topdown",
   "opacity": 1,
   "visible": true,
   "x": 0,
   "y": 0,
   "objects": [
    {
     "id": 32,
     "name": "",
     "type": "heavyCrate",
     "width": 110,
     "height": 110,
     "rotation": 0,
     "visible": true,
     "x": 3990,
     "y": 906
    },
    {
     "id": 33,
     "name": "",
     "type": "woodenBarrier",
     "width": 44,
     "height": 200,
     "rotation": 0,
     "visible": true,
     "x": 5040,
     "y": 816
    },
    {
     "id": 34,
     "name": "",
     "type": "fence",
     "width": 28,
     "height": 150,
     "rotation": 0,
     "visible": true,
     "x": 5640,
     "y": 866
    },
    {
     "id": 35,
     "name": "",
     "type": "fence",
     "width": 28,
     "height": 150,
     "rotation": 0,
     "visible": true,
     "x": 5780,
     "y": 866
    },
    {
     "id": 36,
     "name": "",
     "type": "fence",
     "width": 28,
     "height": 150,
     "rotation": 0,
     "visible": true,
     "x": 5920,
     "y": 866
    },
    {
     "id": 90,
     "name": "",
     "type": "crackedBlock",
     "width": 48,
     "height": 48,
     "rotation": 0,
     "visible": true,
     "x": 7150,
     "y": 968
    },
    {
     "id": 91,
     "name": "",
     "type": "crackedBlock",
     "width": 48,
     "height": 48,
     "rotation": 0,
     "visible": true,
     "x": 7150,
     "y": 920
    },
    {
     "id": 92,
     "name": "",
     "type": "crackedBlock",
     "width": 48,
     "height": 48,
     "rotation": 0,
     "visible": true,
     "x": 7150,
     "y": 872
    },
    {
     "id": 93,
     "name": "",
     "type": "crackedBlock",
     "width": 48,
     "height": 48,
     "rotation": 0,
     "visible": true,
     "x": 7150,
     "y": 824
    },
    {
     "id": 94,
     "name": "",
     "type": "crackedBlock",
     "width": 48,
     "height": 48,
     "rotation": 0,
     "visible": true,
     "x": 7150,
     "y": 776
    },
    {
     "id": 95,
     "name": "",
     "type": "crackedBlock",
     "width": 48,
     "height": 48,
     "rotation": 0,
     "visible": true,
     "x": 7150,
     "y": 728
    },
    {
     "id": 99,
     "name": "",
     "type": "stoneBlock",
     "width": 48,
     "height": 48,
     "rotation": 0,
     "visible": true,
     "x": 7560,
     "y": 968
    },
    {
     "id": 100,
     "name": "",
     "type": "stoneBlock",
     "width": 48,
     "height": 48,
     "rotation": 0,
     "visible": true,
     "x": 7560,
     "y": 920
    },
    {
     "id": 101,
     "name": "",
     "type": "stoneBlock",
     "width": 48,
     "height": 48,
     "rotation": 0,
     "visible": true,
     "x": 7560,
     "y": 872
    },
    {
     "id": 102,
     "name": "",
     "type": "stoneBlock",
     "width": 48,
     "height": 48,
     "rotation": 0,
     "visible": true,
     "x": 7560,
     "y": 824
    },
    {
     "id": 103,
     "name": "",
     "type": "stoneBlock",
     "width": 48,
     "height": 48,
     "rotation": 0,
     "visible": true,
     "x": 7560,
     "y": 776
    },
    {
     "id": 104,
     "name": "",
     "type": "stoneBlock",
     "width": 48,
     "height": 48,
     "rotation": 0,
     "visible": true,
     "x": 7560,
     "y": 728
    }
   ],
   "color": "#4a4f57"
  },
  {
   "id": 3,
   "name": "signs",
   "type": "objectgroup",
   "draworder": "topdown",
   "opacity": 1,
   "visible": true,
   "x": 0,
   "y": 0,
   "objects": [
    {
     "id": 37,
     "name": "",
     "type": "sign",
     "width": 0,
     "height": 0,
     "rotation": 0,
     "visible": true,
     "x": 190,
     "y": 1016,
     "point": true,
     "properties": [
      {
       "name": "text",
       "type": "string",
       "value": "← → to run\nSPACE to jump"
      }
     ]
    },
    {
     "id": 38,
     "name": "",
     "type": "sign",
     "width": 0,
     "height": 0,
     "rotation": 0,
     "visible": true,
     "x": 1700,
     "y": 1016,
     "point": true,
     "properties": [
      {
       "name": "text",
       "type": "string",
       "value": "Hold SHIFT\nto sprint!"
      }
     ]
    },
    {
     "id": 39,
     "name": "",
     "type": "sign",
     "width": 0,
     "height": 0,
     "rotation": 0,
     "visible": true,
     "x": 1940,
     "y": 380,
     "point": true,
     "properties": [
      {
       "name": "text",
       "type": "string",
       "value": "Sprint-jump →"
      }
     ]
    },
    {
     "id": 40,
     "name": "",
     "type": "sign",
     "width": 0,
     "height": 0,
     "rotation": 0,
     "visible": true,
     "x": 1170,
     "y": 1016,
     "point": true,
     "properties": [
      {
       "name": "text",
       "type": "string",
       "value": "SUPER SNIFF TREAT\nWhat can Melody smell?"
      }
     ]
    },
    {
     "id": 41,
     "name": "",
     "type": "sign",
     "width": 0,
     "height": 0,
     "rotation": 0,
     "visible": true,
     "x": 4300,
     "y": 1016,
     "point": true,
     "properties": [
      {
       "name": "text",
       "type": "string",
       "value": "Too heavy?\nFind a SUPER SAUSAGE!"
      }
     ]
    },
    {
     "id": 42,
     "name": "",
     "type": "sign",
     "width": 0,
     "height": 0,
     "rotation": 0,
     "visible": true,
     "x": 4640,
     "y": 796,
     "point": true,
     "properties": [
      {
       "name": "text",
       "type": "string",
       "value": "You pushed it!\nSUPER STRONG!"
      }
     ]
    },
    {
     "id": 43,
     "name": "",
     "type": "sign",
     "width": 0,
     "height": 0,
     "rotation": 0,
     "visible": true,
     "x": 5250,
     "y": 1016,
     "point": true,
     "properties": [
      {
       "name": "text",
       "type": "string",
       "value": "SECRET SAUSAGE\nSTASH! 🌭🌭🌭"
      }
     ]
    },
    {
     "id": 44,
     "name": "",
     "type": "sign",
     "width": 0,
     "height": 0,
     "rotation": 0,
     "visible": true,
     "x": 5520,
     "y": 1016,
     "point": true,
     "properties": [
      {
       "name": "text",
       "type": "string",
       "value": "SUPER CHARGE!\nStrength + SHIFT"
      }
     ]
    },
    {
     "id": 45,
     "name": "",
     "type": "sign",
     "width": 0,
     "height": 0,
     "rotation": 0,
     "visible": true,
     "x": 6060,
     "y": 1016,
     "point": true,
     "properties": [
      {
       "name": "text",
       "type": "string",
       "value": "YOU SMASHED IT!"
      }
     ]
    },
    {
     "id": 46,
     "name": "",
     "type": "sign",
     "width": 0,
     "height": 0,
     "rotation": 0,
     "visible": true,
     "x": 2560,
     "y": 1016,
     "point": true,
     "properties": [
      {
       "name": "text",
       "type": "string",
       "value": "SUPER BARK BISCUIT\nPress B to bark!"
      }
     ]
    },
    {
     "id": 86,
     "name": "",
     "type": "sign",
     "width": 0,
     "height": 0,
     "rotation": 0,
     "visible": true,
     "x": 6250,
     "y": 1016,
     "point": true,
     "properties": [
      {
       "name": "text",
       "type": "string",
       "value": "BARK BOOST!\nJump, then press B\nin the air"
      }
     ]
    },
    {
     "id": 89,
     "name": "",
     "type": "sign",
     "width": 0,
     "height": 0,
     "rotation": 0,
     "visible": true,
     "x": 6750,
     "y": 1016,
     "point": true,
     "properties": [
      {
       "name": "text",
       "type": "string",
       "value": "DANIEL'S BARK BREAK!\nBark at cracked blocks"
      }
     ]
    },
    {
     "id": 97,
     "name": "",
     "type": "sign",
     "width": 0,
     "height": 0,
     "rotation": 0,
     "visible": true,
     "x": 7345,
     "y": 1016,
     "point": true,
     "properties": [
      {
       "name": "text",
       "type": "string",
       "value": "STONE BLOCKS!\nNeed a SUPER BARK"
      }
     ]
    },
    {
     "id": 107,
     "name": "",
     "type": "sign",
     "width": 0,
     "height": 0,
     "rotation": 0,
     "visible": true,
     "x": 7860,
     "y": 1016,
     "point": true,
     "properties": [
      {
       "name": "text",
       "type": "string",
       "value": "BARK-TASTIC!"
      }
     ]
    }
   ],
   "color": "#e9c690"
  },
  {
   "id": 4,
   "name": "collectibles",
   "type": "objectgroup",
   "draworder": "topdown",
   "opacity": 1,
   "visible": true,
   "x": 0,
   "y": 0,
   "objects": [
    {
     "id": 47,
     "name": "",
     "type": "sausage",
     "width": 0,
     "height": 0,
     "rotation": 0,
     "visible": true,
     "x": 420,
     "y": 985,
     "point": true
    },
    {
     "id": 48,
     "name": "",
     "type": "sausage",
     "width": 0,
     "height": 0,
     "rotation": 0,
     "visible": true,
     "x": 520,
     "y": 890,
     "point": true
    },
    {
     "id": 49,
     "name": "",
     "type": "sausage",
     "width": 0,
     "height": 0,
     "rotation": 0,
     "visible": true,
     "x": 760,
     "y": 800,
     "point": true
    },
    {
     "id": 50,
     "name": "",
     "type": "sausage",
     "width": 0,
     "height": 0,
     "rotation": 0,
     "visible": true,
     "x": 1016,
     "y": 710,
     "point": true
    },
    {
     "id": 51,
     "name": "",
     "type": "sausage",
     "width": 0,
     "height": 0,
     "rotation": 0,
     "visible": true,
     "x": 764,
     "y": 350,
     "point": true
    },
    {
     "id": 52,
     "name": "",
     "type": "sausage",
     "width": 0,
     "height": 0,
     "rotation": 0,
     "visible": true,
     "x": 1254,
     "y": 620,
     "point": true
    },
    {
     "id": 53,
     "name": "",
     "type": "sausage",
     "width": 0,
     "height": 0,
     "rotation": 0,
     "visible": true,
     "x": 1500,
     "y": 530,
     "point": true
    },
    {
     "id": 54,
     "name": "",
     "type": "sausage",
     "width": 0,
     "height": 0,
     "rotation": 0,
     "visible": true,
     "x": 1900,
     "y": 985,
     "point": true
    },
    {
     "id": 55,
     "name": "",
     "type": "sausage",
     "width": 0,
     "height": 0,
     "rotation": 0,
     "visible": true,
     "x": 2060,
     "y": 350,
     "point": true
    },
    {
     "id": 56,
     "name": "",
     "type": "sausage",
     "width": 0,
     "height": 0,
     "rotation": 0,
     "visible": true,
     "x": 2496,
     "y": 270,
     "point": true
    },
    {
     "id": 57,
     "name": "",
     "type": "sausage",
     "width": 0,
     "height": 0,
     "rotation": 0,
     "visible": true,
     "x": 2300,
     "y": 440,
     "point": true
    },
    {
     "id": 58,
     "name": "",
     "type": "sausage",
     "width": 0,
     "height": 0,
     "rotation": 0,
     "visible": true,
     "x": 2700,
     "y": 550,
     "point": true
    },
    {
     "id": 59,
     "name": "",
     "type": "sausage",
     "width": 0,
     "height": 0,
     "rotation": 0,
     "visible": true,
     "x": 2396,
     "y": 880,
     "point": true
    },
    {
     "id": 60,
     "name": "",
     "type": "sausage",
     "width": 0,
     "height": 0,
     "rotation": 0,
     "visible": true,
     "x": 3140,
     "y": 770,
     "point": true
    },
    {
     "id": 61,
     "name": "",
     "type": "sausage",
     "width": 0,
     "height": 0,
     "rotation": 0,
     "visible": true,
     "x": 3754,
     "y": 730,
     "point": true
    },
    {
     "id": 62,
     "name": "",
     "type": "sniffTreat",
     "width": 0,
     "height": 0,
     "rotation": 0,
     "visible": true,
     "x": 1310,
     "y": 975,
     "point": true
    },
    {
     "id": 63,
     "name": "squirrel",
     "type": "squirrelToy",
     "width": 0,
     "height": 0,
     "rotation": 0,
     "visible": true,
     "x": 2030,
     "y": 796,
     "point": true,
     "properties": [
      {
       "name": "hidden",
       "type": "bool",
       "value": true
      },
      {
       "name": "requiresSuperSniff",
       "type": "bool",
       "value": true
      }
     ]
    },
    {
     "id": 64,
     "name": "hidden-sausage",
     "type": "sausage",
     "width": 0,
     "height": 0,
     "rotation": 0,
     "visible": true,
     "x": 760,
     "y": 985,
     "point": true,
     "properties": [
      {
       "name": "hidden",
       "type": "bool",
       "value": true
      },
      {
       "name": "requiresSuperSniff",
       "type": "bool",
       "value": true
      }
     ]
    },
    {
     "id": 65,
     "name": "",
     "type": "superSausage",
     "width": 0,
     "height": 0,
     "rotation": 0,
     "visible": true,
     "x": 3920,
     "y": 862,
     "point": true
    },
    {
     "id": 66,
     "name": "",
     "type": "sausage",
     "width": 0,
     "height": 0,
     "rotation": 0,
     "visible": true,
     "x": 4760,
     "y": 766,
     "point": true
    },
    {
     "id": 67,
     "name": "",
     "type": "sausage",
     "width": 0,
     "height": 0,
     "rotation": 0,
     "visible": true,
     "x": 5130,
     "y": 860,
     "point": true
    },
    {
     "id": 68,
     "name": "",
     "type": "sausage",
     "width": 0,
     "height": 0,
     "rotation": 0,
     "visible": true,
     "x": 5190,
     "y": 850,
     "point": true
    },
    {
     "id": 69,
     "name": "",
     "type": "sausage",
     "width": 0,
     "height": 0,
     "rotation": 0,
     "visible": true,
     "x": 5250,
     "y": 846,
     "point": true
    },
    {
     "id": 70,
     "name": "",
     "type": "sausage",
     "width": 0,
     "height": 0,
     "rotation": 0,
     "visible": true,
     "x": 5310,
     "y": 850,
     "point": true
    },
    {
     "id": 71,
     "name": "",
     "type": "sausage",
     "width": 0,
     "height": 0,
     "rotation": 0,
     "visible": true,
     "x": 5370,
     "y": 860,
     "point": true
    },
    {
     "id": 72,
     "name": "",
     "type": "superSausage",
     "width": 0,
     "height": 0,
     "rotation": 0,
     "visible": true,
     "x": 5390,
     "y": 975,
     "point": true
    },
    {
     "id": 73,
     "name": "",
     "type": "sausage",
     "width": 0,
     "height": 0,
     "rotation": 0,
     "visible": true,
     "x": 6000,
     "y": 985,
     "point": true
    },
    {
     "id": 74,
     "name": "",
     "type": "barkBiscuit",
     "width": 0,
     "height": 0,
     "rotation": 0,
     "visible": true,
     "x": 2690,
     "y": 975,
     "point": true
    },
    {
     "id": 75,
     "name": "melody-ball",
     "type": "ball",
     "width": 0,
     "height": 0,
     "rotation": 0,
     "visible": true,
     "x": 2870,
     "y": 1004,
     "point": true,
     "properties": [
      {
       "name": "hidden",
       "type": "bool",
       "value": true
      },
      {
       "name": "revealedBy",
       "type": "string",
       "propertytype": "RevealedBy",
       "value": "event"
      }
     ]
    },
    {
     "id": 76,
     "name": "leaf-sausage",
     "type": "sausage",
     "width": 0,
     "height": 0,
     "rotation": 0,
     "visible": true,
     "x": 3000,
     "y": 992,
     "point": true,
     "properties": [
      {
       "name": "hidden",
       "type": "bool",
       "value": true
      },
      {
       "name": "revealedBy",
       "type": "string",
       "propertytype": "RevealedBy",
       "value": "event"
      }
     ]
    },
    {
     "id": 77,
     "name": "cat-sausage",
     "type": "sausage",
     "width": 0,
     "height": 0,
     "rotation": 0,
     "visible": true,
     "x": 3320,
     "y": 806,
     "point": true
    },
    {
     "id": 88,
     "name": "boost-sausage",
     "type": "sausage",
     "width": 0,
     "height": 0,
     "rotation": 0,
     "visible": true,
     "x": 6450,
     "y": 796,
     "point": true
    },
    {
     "id": 96,
     "name": "break-sausage",
     "type": "sausage",
     "width": 0,
     "height": 0,
     "rotation": 0,
     "visible": true,
     "x": 7235,
     "y": 985,
     "point": true
    },
    {
     "id": 98,
     "name": "",
     "type": "barkBiscuit",
     "width": 0,
     "height": 0,
     "rotation": 0,
     "visible": true,
     "x": 7475,
     "y": 975,
     "point": true
    },
    {
     "id": 105,
     "name": "stone-sausage",
     "type": "sausage",
     "width": 0,
     "height": 0,
     "rotation": 0,
     "visible": true,
     "x": 7670,
     "y": 985,
     "point": true
    },
    {
     "id": 106,
     "name": "super-boost-sausage",
     "type": "sausage",
     "width": 0,
     "height": 0,
     "rotation": 0,
     "visible": true,
     "x": 7760,
     "y": 716,
     "point": true
    }
   ],
   "color": "#e0453a"
  },
  {
   "id": 5,
   "name": "scentTrails",
   "type": "objectgroup",
   "draworder": "topdown",
   "opacity": 1,
   "visible": true,
   "x": 0,
   "y": 0,
   "objects": [
    {
     "id": 78,
     "name": "squirrel-trail",
     "type": "scentTrail",
     "width": 0,
     "height": 0,
     "rotation": 0,
     "visible": true,
     "x": 1340,
     "y": 998,
     "polyline": [
      {
       "x": 0,
       "y": 0
      },
      {
       "x": 160,
       "y": 2
      },
      {
       "x": 340,
       "y": -2
      },
      {
       "x": 405,
       "y": -40
      },
      {
       "x": 450,
       "y": -105
      },
      {
       "x": 520,
       "y": -107
      },
      {
       "x": 585,
       "y": -140
      },
      {
       "x": 650,
       "y": -194
      },
      {
       "x": 690,
       "y": -198
      }
     ],
     "properties": [
      {
       "name": "scentType",
       "type": "string",
       "propertytype": "ScentType",
       "value": "squirrel"
      },
      {
       "name": "targetId",
       "type": "string",
       "value": "squirrel"
      }
     ]
    },
    {
     "id": 79,
     "name": "sausage-trail",
     "type": "scentTrail",
     "width": 0,
     "height": 0,
     "rotation": 0,
     "visible": true,
     "x": 1280,
     "y": 1002,
     "polyline": [
      {
       "x": 0,
       "y": 0
      },
      {
       "x": -130,
       "y": -4
      },
      {
       "x": -260,
       "y": 2
      },
      {
       "x": -380,
       "y": -4
      },
      {
       "x": -480,
       "y": 0
      },
      {
       "x": -518,
       "y": -8
      }
     ],
     "properties": [
      {
       "name": "scentType",
       "type": "string",
       "propertytype": "ScentType",
       "value": "sausage"
      },
      {
       "name": "targetId",
       "type": "string",
       "value": "hidden-sausage"
      }
     ]
    },
    {
     "id": 80,
     "name": "cat-trail",
     "type": "scentTrail",
     "width": 0,
     "height": 0,
     "rotation": 0,
     "visible": true,
     "x": 1360,
     "y": 1008,
     "polyline": [
      {
       "x": 0,
       "y": 0
      },
      {
       "x": 160,
       "y": 3
      },
      {
       "x": 340,
       "y": -2
      },
      {
       "x": 540,
       "y": 3
      },
      {
       "x": 720,
       "y": -3
      },
      {
       "x": 840,
       "y": 1
      },
      {
       "x": 890,
       "y": -4
      }
     ],
     "properties": [
      {
       "name": "scentType",
       "type": "string",
       "propertytype": "ScentType",
       "value": "cat"
      },
      {
       "name": "targetId",
       "type": "string",
       "value": "cat-dead-end"
      }
     ]
    }
   ],
   "color": "#b98cff"
  },
  {
   "id": 6,
   "name": "pointsOfInterest",
   "type": "objectgroup",
   "draworder": "topdown",
   "opacity": 1,
   "visible": true,
   "x": 0,
   "y": 0,
   "objects": [
    {
     "id": 81,
     "name": "cat-dead-end",
     "type": "pointOfInterest",
     "width": 0,
     "height": 0,
     "rotation": 0,
     "visible": true,
     "x": 2250,
     "y": 1016,
     "point": true,
     "properties": [
      {
       "name": "text",
       "type": "string",
       "value": "Just the neighbour's cat!"
      },
      {
       "name": "marker",
       "type": "string",
       "propertytype": "PoiMarker",
       "value": "pawPrints"
      },
      {
       "name": "hidden",
       "type": "bool",
       "value": true
      },
      {
       "name": "requiresSuperSniff",
       "type": "bool",
       "value": true
      },
      {
       "name": "revealRadius",
       "type": "int",
       "value": 200
      }
     ]
    }
   ],
   "color": "#6fd3ff"
  },
  {
   "id": 7,
   "name": "barkTargets",
   "type": "objectgroup",
   "draworder": "topdown",
   "opacity": 1,
   "visible": true,
   "x": 0,
   "y": 0,
   "objects": [
    {
     "id": 82,
     "name": "ball-tree",
     "type": "ballInTree",
     "width": 0,
     "height": 0,
     "rotation": 0,
     "visible": true,
     "x": 2840,
     "y": 1016,
     "point": true,
     "properties": [
      {
       "name": "reveals",
       "type": "string",
       "value": "melody-ball"
      },
      {
       "name": "height",
       "type": "int",
       "value": 200
      }
     ]
    },
    {
     "id": 83,
     "name": "leaf-pile",
     "type": "leafPile",
     "width": 0,
     "height": 0,
     "rotation": 0,
     "visible": true,
     "x": 3000,
     "y": 1016,
     "point": true,
     "properties": [
      {
       "name": "reveals",
       "type": "string",
       "value": "leaf-sausage"
      }
     ]
    },
    {
     "id": 84,
     "name": "ledge-cat",
     "type": "cat",
     "width": 0,
     "height": 0,
     "rotation": 0,
     "visible": true,
     "x": 3310,
     "y": 830,
     "point": true
    }
   ],
   "color": "#3f8f3a"
  },
  {
   "id": 8,
   "name": "markers",
   "type": "objectgroup",
   "draworder": "topdown",
   "opacity": 1,
   "visible": true,
   "x": 0,
   "y": 0,
   "objects": [
    {
     "id": 85,
     "name": "spawn",
     "type": "spawn",
     "width": 0,
     "height": 0,
     "rotation": 0,
     "visible": true,
     "x": 50,
     "y": 1016,
     "point": true
    }
   ],
   "color": "#2ecc71"
  }
 ],
 "tilesets": [],
 "properties": [
  {
   "name": "name",
   "type": "string",
   "value": "Melody's Playground"
  },
  {
   "name": "showDistanceMarkers",
   "type": "bool",
   "value": true
  },
  {
   "name": "skyColor",
   "type": "color",
   "value": "#ff87ceeb"
  }
 ]
}